X:1
T:Christ Is Born Today
T:Christ Is Born Today
T:Chester G. Allen
T:Mary Ann Pepper Kidder, 1879
T:Public Domain Courtesy of the Cyber Hymnal™
T:Public Domain Courtesy of the Cyber Hymnal™
C:Chester G. Allen
Z:Public Domain
Z:Courtesy of the Cyber Hymnal™
%%score ( 1 2 ) ( 3 4 )
L:1/8
Q:1/4=110
M:9/8
K:F
V:1 treble 
V:2 treble 
V:3 bass 
V:4 bass 
V:1
 C2 [CF] | [FA]3- [FA]2 [FA] ([FA][EG])[FA] | [Ac]3 [FA]3 C2 [CF] | [FA]3- [FA]2 F (cB)[FA] | %4
w: 1.~Glo- ry|in * the high- * est,|glo- ry! Saints and|an- * gels praise * the|
w: 2.~Praise Him,|praise * Him ev- * ery|na- tion! On this|hap- * py fes- * tive|
w: 3.~He who|trod * the way * be-|fore us, Bore for|us * re- proach * and|
w: 4.~Glo- ry|in * the high- * est,|glo- ry! Hail the|Sav- * ior’s na- * tal|
 [EG]6 C2 [CF] | [FA]3- [FA]2 [FA] (AB)[Fc] | [Gc]3 [GB]3 F2 [FG] | [FA]3- [FA]2 [CF] (GF)[CE] | %8
w: morn; Shout ho-|san- * na, tell * the|sto- ry, Christ the|Lord * of life * is|
w: morn; Praise the|Rock * of our * sal-|va- tion, Christ the|Lord * of life * is|
w: scorn, See His|ban- * ner wav- * ing|o’er us, Christ our|lov- * ing Sav- * ior|
w: morn; Saints and|an- * gels tell * the|sto- ry, Christ the|Lord * of life * is|
 [CF]6 ||"^Refrain" [CE]2 [DF] | [EG]3 [EG]3 ([EG][FA])[GB] | [GB]3 [FA]3 [FA]2 [FA] | %12
w: born.||||
w: born.||||
w: born.||||
w: born.||||
 [Fd]3- [Fd]2 [Fc] (=BA)[FB] | [Ec]6 [FA]2 [GB] | [Ac]3- [Ac]2 [FA] (fe)[Fd] | %15
w: |||
w: |||
w: |||
w: |||
 [Fc]3 [FA]3 [FA]2 [Fc] | [Fd]3- [Fd]2 [Fc] ([Fc][EB])[FA] | ([FA]3 [EG]3) [EG]2 [EG] | %18
w: |||
w: |||
w: |||
w: |||
 [FA]3- [FA]2 [FA] (AB)[Fc] | [Gc]3 [GB]3 F2 [FG] | [FA]3- [FA]2 [Ac] [FA]2 [EG] | F6 |] %22
w: ||||
w: ||||
w: ||||
w: ||||
V:2
 C2 x | x9 | x6 C2 x | x5 F F2 x | x6 C2 x | x6 F2 x | x6 F2 x | x6 C2 x | x6 || x3 | x9 | x9 | %12
 x6 F2 x | x9 | x6 F2 x | x9 | x9 | x9 | x6 F2 x | x6 F2 x | x9 | F6 |] %22
V:3
 [F,A,]2 [F,A,] | [F,C]3- [F,C]2 [F,C] [F,C]2 [F,C] | [F,F]3 [F,C]3 [F,A,]2 [F,A,] | %3
w: ~ ~|~ * ~ ~ ~|~ ~ ~ ~|
 [F,C]3- [F,C]2 [F,A,] (A,G,)F, | ([C,G,]3 [C,C]3) [F,A,]2 [F,A,] | %5
w: ~ * ~ ~ * ~|~ * ~ ~|
 [F,C]3- [F,C]2 [F,C] (CD)[F,_E] | [B,,D]3 [B,,D]3 [B,,D]2 [B,,D] | %7
w: ~ * ~ ~ * ~|~ ~ ~ ~|
 [C,C]3- [C,C]2 [C,A,] (B,A,)[C,G,] | [F,A,]6 || [C,G,]2 [C,G,] | [C,C]3 [C,C]3 [C,C]2 [C,C] | %11
w: ~ * ~ ~ * ~|~|In the|man- ger He is|
 [F,C]3 [F,C]3 [F,C]2 [F,A,] | [D,A,]3- [D,A,]2 [D,A,] G,2 [G,D] | [C,C]6 [F,C]2 [F,C] | %14
w: sleep- ing; Scarce we|hear * His gen- tle|breath; Yet, O|
 [F,F]3- [F,F]2 [F,C] (DC)[F,B,] | [F,A,]3 [F,C]3 [F,C]2 [A,C] | B,3- B,2 [A,C] C2 [F,C] | %17
w: glo- * ry, hal- * le-|lu- jah! He hath|come * to save from|
 [C,C]6 [C,C]2 [C,C] | [F,C]3- [F,C]2 [F,C] (CD)[F,_E] | [B,,D]3 [B,,D]3 [B,,D]2 [=B,,D] | %20
w: death; Yet, O|glo- * ry, hal- * le-|lu- jah! He hath|
 [C,C]3- [C,C]2 [C,F] [C,C]2 [C,B,] | [F,A,]6 |] %22
w: come * to save from|death.|
V:4
 x3 | x9 | x9 | x6 F,2 F, | x9 | x6 F,2 x | x9 | x6 C,2 x | x6 || x3 | x9 | x9 | x6 G,2 x | x9 | %14
 x6 F,2 x | x9 | B,3- B,2 (A, G,) x2 | x9 | x6 F,2 x | x9 | x9 | x6 |] %22

